icon/pk/fan.svg

<svg viewBox="0 0 48 48" fill="none" xmlns="http://www.w3.org/2000/svg" height="1em" width="1em">
  <path d="M23.9995 31V36M14.0134 27.7553L4.02734 24.5106C5.39776 20.2929 8.06824 16.6173 11.656 14.0106C15.2438 11.404 19.5648 10 23.9995 10C28.4343 10 32.7552 11.404 36.343 14.0106C39.9308 16.6173 42.6013 20.2929 43.9717 24.5106L33.9856 27.7553H14.0134ZM14.0134 27.7553C14.6986 25.6465 16.0339 23.8087 17.8278 22.5053L14.0134 27.7553ZM14.0134 27.7553L23.9995 31L14.0134 27.7553ZM17.8278 22.5053C19.6217 21.202 21.7821 20.5 23.9995 20.5L17.8278 22.5053ZM17.8278 22.5053L23.9995 31L17.8278 22.5053ZM23.9995 20.5C26.2169 20.5 28.3774 21.202 30.1713 22.5053L23.9995 20.5ZM23.9995 20.5V31V20.5ZM30.1713 22.5053C31.9652 23.8087 33.3004 25.6465 33.9856 27.7553L30.1713 22.5053ZM30.1713 22.5053L23.9995 31L30.1713 22.5053ZM33.9856 27.7553L23.9995 31L33.9856 27.7553Z" stroke="black" stroke-width="4" stroke-linecap="round" stroke-linejoin="round"/>
</svg>

<svg width="48" height="48" fill="none" xmlns="http://www.w3.org/2000/svg"><path d="M24 31v5m-9.987-8.245-9.986-3.244a21 21 0 0 1 39.945 0l-9.986 3.244H14.013Zm0 0a10.5 10.5 0 0 1 3.815-5.25l-3.815 5.25Zm0 0L24 31l-9.987-3.245Zm3.815-5.25A10.5 10.5 0 0 1 24 20.5l-6.172 2.005Zm0 0L24 31l-6.172-8.495ZM24 20.5a10.5 10.5 0 0 1 6.171 2.005L24 20.5Zm0 0V31 20.5Zm6.171 2.005a10.5 10.5 0 0 1 3.815 5.25l-3.815-5.25Zm0 0L24 31l6.171-8.495Zm3.815 5.25L24 31l9.986-3.245Z" stroke="#000" stroke-width="4" stroke-linecap="round" stroke-linejoin="round"/></svg>
